img/icons/envelope-open.svg

<svg width="80" height="80" viewBox="0 0 80 80" fill="none" xmlns="http://www.w3.org/2000/svg">
<g clip-path="url(#clip0_2922_9456)">
<path d="M75.41 30.8667L70 25.6533V11.6667C70 5.23333 64.7667 0 58.3333 0H21.6667C15.2333 0 10 5.23333 10 11.6667V25.6533L4.58667 30.87C1.67 33.6833 0 37.6167 0 41.67V65.0033C0 73.2733 6.73 80.0033 15 80.0033H65C73.27 80.0033 80 73.2733 80 65.0033V41.67C80 37.6167 78.3267 33.68 75.41 30.8667ZM73.1 33.2667C73.4067 33.5633 73.6967 33.8733 73.9667 34.2L70.0033 38.1633V30.2767L73.1033 33.2633L73.1 33.2667ZM13.3333 11.6667C13.3333 7.07333 17.0733 3.33333 21.6667 3.33333H58.3333C62.93 3.33333 66.6667 7.07333 66.6667 11.6667V41.5L48.25 59.9167C43.8467 64.3233 36.16 64.3267 31.75 59.9167L13.3333 41.5V11.6667ZM6.90333 33.2667L10 30.28V38.1633L6.03667 34.2C6.30667 33.8733 6.59667 33.5633 6.90333 33.2667ZM76.6667 65C76.6667 71.4333 71.4333 76.6667 65 76.6667H15C8.56667 76.6667 3.33333 71.4333 3.33333 65V41.6667C3.33333 40.1033 3.65333 38.56 4.25667 37.1333L29.3933 62.2733C32.2267 65.1067 35.9933 66.6667 40 66.6667C44.0067 66.6667 47.7733 65.1067 50.6067 62.2733L75.7467 37.1333C76.3467 38.5567 76.67 40.1 76.67 41.6667L76.6667 65ZM23.3333 18.3333C23.3333 17.4133 24.08 16.6667 25 16.6667H55C55.92 16.6667 56.6667 17.4133 56.6667 18.3333C56.6667 19.2533 55.92 20 55 20H25C24.08 20 23.3333 19.2533 23.3333 18.3333ZM23.3333 31.6667C23.3333 30.7467 24.08 30 25 30H48.3333C49.2533 30 50 30.7467 50 31.6667C50 32.5867 49.2533 33.3333 48.3333 33.3333H25C24.08 33.3333 23.3333 32.5867 23.3333 31.6667Z" fill="#273C8D"/>
</g>
<defs>
<clipPath id="clip0_2922_9456">
<rect width="80" height="80" fill="white"/>
</clipPath>
</defs>
</svg>

<svg width="80" height="80" fill="none" xmlns="http://www.w3.org/2000/svg"><g clip-path="url(#clip0_2922_9456)"><path d="M75.41 30.867L70 25.653V11.667C70 5.233 64.767 0 58.333 0H21.667C15.233 0 10 5.233 10 11.667v13.986L4.587 30.87A15.075 15.075 0 000 41.67v23.333c0 8.27 6.73 15 15 15h50c8.27 0 15-6.73 15-15V41.67c0-4.053-1.673-7.99-4.59-10.803zm-2.31 2.4c.307.296.597.606.867.933l-3.964 3.963v-7.886l3.1 2.986-.003.004zm-59.767-21.6c0-4.594 3.74-8.334 8.334-8.334h36.666c4.597 0 8.334 3.74 8.334 8.334V41.5L48.25 59.917c-4.403 4.406-12.09 4.41-16.5 0L13.333 41.5V11.667zm-6.43 21.6L10 30.28v7.883L6.037 34.2c.27-.327.56-.637.866-.933zM76.667 65c0 6.433-5.234 11.667-11.667 11.667H15C8.567 76.667 3.333 71.433 3.333 65V41.667c0-1.564.32-3.107.924-4.534l25.136 25.14A14.901 14.901 0 0040 66.667a14.9 14.9 0 0010.607-4.394l25.14-25.14c.6 1.424.923 2.967.923 4.534L76.667 65zM23.333 18.333c0-.92.747-1.666 1.667-1.666h30A1.667 1.667 0 0155 20H25c-.92 0-1.667-.747-1.667-1.667zm0 13.334c0-.92.747-1.667 1.667-1.667h23.333a1.667 1.667 0 010 3.333H25c-.92 0-1.667-.746-1.667-1.666z" fill="#273C8D"/></g><defs><clipPath id="clip0_2922_9456"><path fill="#fff" d="M0 0h80v80H0z"/></clipPath></defs></svg>
